!!!OTL: Baenkelsaengerlied. (Gesang eines Fahrenden.) / (14. Jahrh.)
!!!ARE: Europa, Mitteleuropa, Deutschland
!!!SCT: A0291
!!!TXL: @@GMH
!!!YEM: Copyright 1995, estate of Helmut Schaffrath.
**kern	**text
*M6/2	*
*clefC4	*
*k[b-]	*
*F:ion	*
!LO:TX:a:t=jon.	!
{2F	Ich
=1	=1
1F	ſpring
2F	an
1A	die-
2A	-ſem
=2	=2
1.c	rin-
1c}	-ge,
{2c	des
=3	=3
1c	pe-
2c	-ſten
1d	ſo
2d	ichs
=4	=4
*lig	*
1.c	kan
1A}	.
*Xlig	*
{2F	Von
=5	=5
1F	hüb-
2F	-ſchen
1A	frewlein
2A	.
=6	=6
1.c	ſin-
1c}	-ge,
{2c	als
=7	=7
1c	ichs
2c	ge-
1d	-le-
2d	-ret
*lig	*
=8	=8
1.c	han.
1e}	.
*Xlig	*
{2e	Ich
=9	=9
1f	raidt
2f	durch
1e	frem-
2d	-de
=10	=10
1.c	lan-
1A}	-de,
{2A	da
=11	=11
1c	ſach
2c	ich
1d	man-
2d	-cher
=12	=12
1.c	han-
1B-}	-de,
{2B-	wo
=13	=13
1A	ich
2A	die
1G	freu-
2G	-lein
=14	=14
!LO:TX:a:t=P:one note in the source:problem	!
[1.F/ll	fand
1F]}	.
==	==
!!!GTL: Tanz- und Kranzlieder
!!!AGN: Romanze, Ballade, Lied
!! Locheimer Liederbuch No. 42
!!!ONB: ESAC (Essen Associative Code) Database: ALTDEU
!!!AMT: compound duple
!!!AIN: vox
!!!EED: Helmut Schaffrath
!!!EEV: 1.0
!!!RDF**kern: l = terminal long
!!!URL-scan: https://rosdok.uni-rostock.de/mcrviewer/recordIdentifier/rosdok_ppn738218359/iview2/phys_0445.iview2?x=-495.6391625615763&y=4.752216753317043&scale=0.4629418472063854&rotation=0&layout=singlePageLayout&logicalDiv=log_0012
!!!AMD: Ionian
!!!ENC: Anna Maria Matuszewska
!!!EEV: 2024/12/03
*-	*-
